app/dist/common/images/mbia.svg

<svg height="18" viewBox="0 0 18 18" width="18" xmlns="http://www.w3.org/2000/svg"><g fill="#075a78"><path d="m10 10h.42v.42l.04-.08c.06-.13.14-.34.57-.34.25 0 .48.16.58.41a.7.7 0 0 1 .68-.4c.35 0 .71.3.71.75v2.24h-.48v-2.3c0-.06-.06-.27-.36-.27-.22 0-.37.33-.45.5 0 .03-.02.05-.03.07v2h-.48v-2.3c0-.06 0-.27-.3-.27-.22 0-.37.33-.45.5 0 .03-.02.05-.03.07v2h-.42z"/><path d="m13 5h-8v8h3v-.5h-2.5v-7h7v2.5l.5-.26z"/></g></svg>

<!-- by TradingView --><svg width="18" height="18" viewBox="0 0 18 18" xmlns="http://www.w3.org/2000/svg"><path d="M10 10h.42v.42l.04-.08c.06-.13.14-.34.57-.34.25 0 .48.16.58.41a.7.7 0 0 1 .68-.4c.35 0 .71.3.71.75V13h-.48V10.7c0-.06-.06-.27-.36-.27-.22 0-.37.33-.45.5 0 .03-.02.05-.03.07V13h-.48V10.7c0-.06 0-.27-.3-.27-.22 0-.37.33-.45.5 0 .03-.02.05-.03.07V13H10v-3Z" fill="#075A78"/><path d="M13 5H5v8h3v-.5H5.5v-7h7V8l.5-.26V5Z" fill="#075A78"/></svg>
